openframe-frontend-core/src/components/icons-v2/brand-logos/chrome.svg

<svg width="24" height="24" viewBox="0 0 24 24" fill="none" xmlns="http://www.w3.org/2000/svg">
<path d="M14.8749 12C14.8749 10.4122 13.5872 9.12451 11.9994 9.12451C10.4119 9.12483 9.1254 10.4124 9.1254 12C9.1254 13.5876 10.4119 14.8752 11.9994 14.8755C13.5872 14.8755 14.8749 13.5878 14.8749 12ZM17.1249 12C17.1249 12.8994 16.8917 13.7438 16.4848 14.4785C16.4774 14.4941 16.4724 14.5115 16.4643 14.5269L12.244 22.4985L12.1855 22.5981C11.8691 23.0722 11.2382 23.2396 10.7235 22.9673C10.1744 22.6766 9.96558 21.9944 10.2563 21.4453L12.5575 17.0933C12.3743 17.1131 12.1879 17.1255 11.9994 17.1255C10.1136 17.1253 8.46681 16.1055 7.57706 14.5884C7.56955 14.5761 7.56072 14.5644 7.55362 14.5518L3.05215 6.55225L3.00088 6.44824C2.77307 5.92584 2.97273 5.30581 3.47989 5.02002C3.98748 4.73435 4.62214 4.88501 4.95059 5.35107L5.01211 5.44775L7.41299 9.71338C8.21628 8.10509 9.83971 6.97814 11.7357 6.88184L11.9994 6.87451H21.1679L21.2836 6.88037C21.8504 6.93825 22.2926 7.41745 22.2929 7.99951C22.2929 8.58176 21.8505 9.06071 21.2836 9.11865L21.1679 9.12451H16.2431C16.7998 9.94442 17.1249 10.9343 17.1249 12Z" fill="#888888"/>
<path d="M20.8745 12.0005C20.8745 7.09912 16.9018 3.12526 12.0005 3.125C7.09896 3.125 3.125 7.09896 3.125 12.0005C3.12526 16.9018 7.09912 20.8745 12.0005 20.8745C16.9016 20.8742 20.8742 16.9016 20.8745 12.0005ZM23.1245 12.0005C23.1242 18.1443 18.1443 23.1242 12.0005 23.1245C5.85648 23.1245 0.875264 18.1444 0.875 12.0005C0.875 5.85632 5.85632 0.875 12.0005 0.875C18.1444 0.875264 23.1245 5.85648 23.1245 12.0005Z" fill="#888888"/>
</svg>

<svg xmlns="http://www.w3.org/2000/svg" width="24" height="24" fill="none" viewBox="0 0 24 24">
  <path fill="#888" d="M14.875 12a2.876 2.876 0 1 0-5.752 0 2.876 2.876 0 0 0 5.752 0Zm2.25 0a5.1 5.1 0 0 1-.64 2.479c-.008.015-.013.033-.02.048l-4.221 7.972-.059.1a1.126 1.126 0 0 1-1.929-1.154l2.301-4.352a5.122 5.122 0 0 1-4.98-2.505l-.023-.036-4.502-8-.051-.104a1.124 1.124 0 0 1 1.95-1.097l.061.097 2.401 4.265a5.125 5.125 0 0 1 4.323-2.831l.263-.007h9.169l.116.005a1.126 1.126 0 0 1 0 2.239l-.116.006h-4.925A5.1 5.1 0 0 1 17.125 12Z"/>
  <path fill="#888" d="M20.875 12a8.875 8.875 0 1 0-17.75 0 8.875 8.875 0 0 0 17.75 0Zm2.25 0c0 6.144-4.98 11.124-11.124 11.125C5.856 23.125.875 18.145.875 12 .875 5.856 5.856.875 12.001.875c6.143 0 11.124 4.981 11.124 11.126Z"/>
</svg>
